remix/Design/contrast-drop-line.svg

<svg viewBox="0 0 24 24" fill="currentColor" xmlns="http://www.w3.org/2000/svg"><path d="M12 3.09735L7.05025 8.04709C4.31658 10.7808 4.31658 15.2129 7.05025 17.9466C9.78392 20.6803 14.2161 20.6803 16.9497 17.9466C19.6834 15.2129 19.6834 10.7808 16.9497 8.0471L12 3.09735ZM12 0.268921L18.364 6.63288C21.8787 10.1476 21.8787 15.8461 18.364 19.3608C14.8492 22.8755 9.15076 22.8755 5.63604 19.3608C2.12132 15.8461 2.12132 10.1476 5.63604 6.63288L12 0.268921ZM12 17.9968V7.99684C14.7614 7.99684 17 10.2354 17 12.9968C17 15.7583 14.7614 17.9968 12 17.9968Z"/></svg>

<svg viewBox="0 0 24 24" xmlns="http://www.w3.org/2000/svg"><path fill="none" d="M0 0h24v24H0Z"/><path d="M12 3.1L7.05 8.05v0c-2.74 2.73-2.74 7.16 0 9.89 2.73 2.73 7.16 2.73 9.89-.01 2.73-2.74 2.73-7.17 0-9.9l-4.95-4.95Zm0-2.83l6.36 6.36V6.62c3.51 3.51 3.51 9.21-.01 12.72 -3.52 3.51-9.22 3.51-12.73-.01C2.1 15.81 2.1 10.11 5.61 6.6L11.97.23Zm0 17.728v-10 0c2.76 0 5 2.23 5 5 0 2.76-2.24 5-5 5Z"/></svg>
